X:315
T:Shooters Hornpipe
R:hp 32
O:England
B:Joshua Jackson ms (Geoff Bowen)
M:2/2
L:1/8
Q:1/2=90
K:G
|:G2G2 GABc|dcBA GBAG|A2A2 Aced|cBAG FAFD|
G2G2 GABc|dcBA G2g2|fafd egec|d2d>d d4:|]
|:A2A2 A2e>d|cBAG FAFD|d2d2 d2e>f|gedc BdBG|
e2c2 cege|d2B2 Bdgd|ecdB cAGF|G2G>G G4:|]

